X:1
T:C Major Jacob French, 1802
T:William Billings, 1778 88. 88. 88.
T:Connecticut
T:Transcribed from Harmony of Harmony, 1802
%%score [ 1 2 3 4 ]
L:1/8
Q:1/4=90
M:2/4
K:C
V:1 treble nm="Tr." snm="Tr."
V:2 treble nm="C." snm="C."
V:3 treble-8 nm="T." snm="T."
V:4 bass nm="B." snm="B."
V:1
 c2 cd | e2 e2 | dc Bc/d/ | c3 B | c2 c2 | B2 A2 | d2 c2 | B4- | B4 | z4 | z4 | z4 | c2 gf | e3 d | %14
w: ||||||||||||In this de-|sign one|
 c2 B2 | c3 B | cc [Ac][Ac] | ff ee | eg fe | dd ed | c3 B | A<c B<d | cd/e/ dc | B3 c/d/ | e3 d | %25
w: cho- rus|raise, *||||||||||
 c<e g<e | dc gf | e4- | e4 |] %29
w: ||||
V:2
 E2 EF | G2 G2 | G2 G2 | G3 G | G2 G2 | G2 E2 | A2 G2 | G4- | G4 | z4 | z4 | C2 GF | E3 A | GG GA | %14
w: Come, let us|sing un-|to the|Lord And|praise his|name with|one ac-|cord.||||In this de-|sign one|cho- rus raise, one|
 G2 G2 | G3 G | GG AA | AA GG | GE AA | GG GG | G3 G/F/ | E<A F<D | GE A2 | G3 E | c3 B/A/ | %25
w: cho- rus|raise, From|east to west his|praise pro- claim, From|pole to pole ex-|tol his fame, The|skies shall *|e- * cho *|back * his|praise, The|skies shall *|
 G2 cB | A2 G2 | G4- | G4 |] %29
w: e- cho *|back his|praise.||
V:3
 G2 GG | c2 c2 | d2 de/f/ | e3 d | e2 e2 | d2 c2 | f2 e2 | d4- | d4 | z4 | c2 gf | e3 d | (c>de>d | %13
w: ||||||||||In this de-|sign one|cho- * * *|
 c>Bcf | e2) d2 | e3 d | ee cc | dd GG | cG AA | BB cd | e3 d | c<e d<f | ec fe | d3 c | g3 f | %25
w: |* rus|raise, *||||||||||
 e<c e<g | fe d2 | c4- | c4 |] %29
w: ||||
V:4
 C,2 C,C, | C,2 C,2 | G,2 G,2 | C3 G, | C2 C2 | G,2 A,2 | F,2 C,2 | G,4- | G,4 | C,2 G,F, | %10
w: |||||||||In this de-|
 E,3 D, | C,2 C,2 | C,4- | C,3 D, | E,F, G,2 | C3 G, | C,C, F,F, | D,D, E,E, | C,C, F,F, | %19
w: sign one|cho- rus|raise,~|_ one|cho- * rus|raise, *||||
 G,G, C,G, | C3 G, | A,2 B,2 | C2 D2 | G,3 A,/B,/ | C3 D | C2 (3C,D,E, | F,2 G,2 | C,4- | C,4 |] %29
w: ||||||||||

